X:60
T:Downs Third Hornpipe. JBu.60
O:England,South Yorkshire
S:Joshua Burnett’s MS,c1835,S.Yorkshire
M:C
L:1/8
Q:1/2=80
R:.hornpipe
N:The A music is similar to Lady Flashdash etc.
Z:vmp.R.Greig.2011
K:Bb
zF|BABc dBFD|EDEF GECE|D>FE>G F>BA>c|A>Fe>c B>AG>F|
BABc dBFD|EDEF GECE|DFEG FBAc|AceA B2:|
|:de| fefg fgaf|b>Ba>B g>Bf>B|edef gecA|(3AcB (3AGF (3AcB (3AGF|
DB,CD EFGA|Bcde fgab|fbfe dcBA|B2B2B2:|

